Origami/64x64/apps/boinc.svg

<svg width="64" height="64" version="1" xmlns="http://www.w3.org/2000/svg">
 <path d="m32 5c-15.512 0-28 12.488-28 28s12.488 28 28 28 28-12.488 28-28-12.488-28-28-28z" style="opacity:.2"/>
 <path d="m32 4c-15.512 0-28 12.488-28 28s12.488 28 28 28 28-12.488 28-28-12.488-28-28-28z" style="fill:#154277"/>
 <circle cx="32" cy="33" r="8" style="opacity:.2"/>
 <circle cx="32" cy="32" r="8" style="fill:#f5ca4a"/>
 <path d="m48.515624 10.394499-4.031248 6.980469-3.058594 5.296876a14 14 0 0 1 4.574218 10.328124 14 14 0 0 1 -0.660156 4.238282l5.28125 3.05078a20 20 0 0 0 1.378906 -7.289062 20 20 0 0 0 -3.285156 -10.953124l4.335938-7.507814c-1.353996-1.54404-2.87346-2.930753-4.535158-4.144531zm-34.976562 1.554688c-1.54404 1.353996-2.930753 2.873459-4.1445308 4.535156l6.9804688 4.031249 5.296876 3.058594a14 14 0 0 1 10.328124 -4.574218 14 14 0 0 1 4.238282 0.660156l3.05078-5.28125a20 20 0 0 0 -7.289062 -1.378906 20 20 0 0 0 -10.953124 3.285156l-7.507814-4.335937zm-0.160156 13.761719a20 20 0 0 0 -1.378906 7.289062 20 20 0 0 0 3.285156 10.953124l-3.628906 6.285158c1.39992 1.480428 2.942872 2.822836 4.636719 3.96875l3.222656-5.582032 3.058593-5.296876a14 14 0 0 1 -4.574218 -10.328124 14 14 0 0 1 0.660156 -4.238282l-5.28125-3.05078zm28.949218 16.714844a14 14 0 0 1 -10.328124 4.574218 14 14 0 0 1 -4.238282 -0.660156l-3.05078 5.28125a20 20 0 0 0 7.289062 1.378906 20 20 0 0 0 10.953124 -3.285156l6.07422 3.507812c1.66153-1.272846 3.187176-2.70792 4.523438-4.316406l-5.925782-3.421874-5.296876-3.058594z" style="opacity:.2"/>
 <path d="M 48.515624,9.3945312 44.484376,16.375 41.425782,21.671876 A 14,14 0 0 1 46,32 14,14 0 0 1 45.339844,36.238282 l 5.28125,3.05078 A 20,20 0 0 0 52,32 20,20 0 0 0 48.714844,21.046876 l 4.335938,-7.507814 c -1.353996,-1.54404 -2.87346,-2.930753 -4.535158,-4.1445308 z M 13.539062,10.949219 c -1.54404,1.353996 -2.930753,2.873459 -4.1445308,4.535156 l 6.9804688,4.03125 5.296876,3.058593 A 14,14 0 0 1 32,18 a 14,14 0 0 1 4.238282,0.660156 l 3.05078,-5.28125 A 20,20 0 0 0 32,12 20,20 0 0 0 21.046876,15.285156 L 13.539062,10.949219 Z M 13.378906,24.710938 A 20,20 0 0 0 12,32 20,20 0 0 0 15.285156,42.953124 l -4.335937,7.507814 c 1.353996,1.54404 2.873459,2.930752 4.535156,4.14453 L 19.515625,47.625 22.574218,42.328124 A 14,14 0 0 1 18,32 14,14 0 0 1 18.660156,27.761718 l -5.28125,-3.05078 z M 42.328124,41.425782 A 14,14 0 0 1 32,46 14,14 0 0 1 27.761718,45.339844 l -3.05078,5.28125 A 20,20 0 0 0 32,52 20,20 0 0 0 42.953124,48.714844 l 7.507814,4.335938 c 1.54404,-1.353996 2.930752,-2.87346 4.14453,-4.535158 L 47.625,44.484376 42.328124,41.425782 Z" style="fill:#5286fe"/>
 <path d="M 32 4 C 16.488 4 4 16.488 4 32 C 4 32.11345 4.0112805 32.224113 4.0175781 32.335938 C 4.3691213 17.134181 16.710728 5 32 5 C 47.289272 5 59.630879 17.134181 59.982422 32.335938 C 59.98872 32.224113 60 32.11345 60 32 C 60 16.488 47.512 4 32 4 z" style="fill:#ffffff;opacity:.1"/>
</svg>

<svg xmlns="http://www.w3.org/2000/svg" width="64" height="64" version="1">
 <path style="opacity:0.2" d="M 32,5 C 16.488,5 4,17.488 4,33 4,48.512 16.488,61 32,61 47.512,61 60,48.512 60,33 60,17.488 47.512,5 32,5 Z"/>
 <path style="fill:#154277" d="M 32,4 C 16.488,4 4,16.488 4,32 4,47.512 16.488,60 32,60 47.512,60 60,47.512 60,32 60,16.488 47.512,4 32,4 Z"/>
 <circle style="opacity:0.2" cx="32" cy="33" r="8"/>
 <circle style="fill:#f5ca4a" cx="32" cy="32" r="8"/>
 <path style="opacity:0.2" d="m 48.515624,10.394499 -4.031248,6.980469 -3.058594,5.296876 A 14,14 0 0 1 46,32.999968 14,14 0 0 1 45.339844,37.23825 l 5.28125,3.05078 A 20,20 0 0 0 52,32.999968 20,20 0 0 0 48.714844,22.046844 l 4.335938,-7.507814 c -1.353996,-1.54404 -2.87346,-2.930753 -4.535158,-4.144531 z m -34.976562,1.554688 c -1.54404,1.353996 -2.930753,2.873459 -4.1445308,4.535156 L 16.375,20.515592 21.671876,23.574186 A 14,14 0 0 1 32,18.999968 a 14,14 0 0 1 4.238282,0.660156 l 3.05078,-5.28125 A 20,20 0 0 0 32,12.999968 20,20 0 0 0 21.046876,16.285124 L 13.539062,11.949187 Z M 13.378906,25.710906 A 20,20 0 0 0 12,32.999968 20,20 0 0 0 15.285156,43.953092 L 11.65625,50.23825 c 1.39992,1.480428 2.942872,2.822836 4.636719,3.96875 l 3.222656,-5.582032 3.058593,-5.296876 A 14,14 0 0 1 18,32.999968 14,14 0 0 1 18.660156,28.761686 l -5.28125,-3.05078 z M 42.328124,42.42575 A 14,14 0 0 1 32,46.999968 14,14 0 0 1 27.761718,46.339812 l -3.05078,5.28125 A 20,20 0 0 0 32,52.999968 20,20 0 0 0 42.953124,49.714812 l 6.07422,3.507812 c 1.66153,-1.272846 3.187176,-2.70792 4.523438,-4.316406 L 47.625,45.484344 42.328124,42.42575 Z"/>
 <path style="fill:#5286fe" d="M 48.515624,9.3945312 44.484376,16.375 41.425782,21.671876 A 14,14 0 0 1 46,32 14,14 0 0 1 45.339844,36.238282 l 5.28125,3.05078 A 20,20 0 0 0 52,32 20,20 0 0 0 48.714844,21.046876 l 4.335938,-7.507814 c -1.353996,-1.54404 -2.87346,-2.930753 -4.535158,-4.1445308 z M 13.539062,10.949219 c -1.54404,1.353996 -2.930753,2.873459 -4.1445308,4.535156 l 6.9804688,4.03125 5.296876,3.058593 A 14,14 0 0 1 32,18 a 14,14 0 0 1 4.238282,0.660156 l 3.05078,-5.28125 A 20,20 0 0 0 32,12 20,20 0 0 0 21.046876,15.285156 L 13.539062,10.949219 Z M 13.378906,24.710938 A 20,20 0 0 0 12,32 20,20 0 0 0 15.285156,42.953124 l -4.335937,7.507814 c 1.353996,1.54404 2.873459,2.930752 4.535156,4.14453 L 19.515625,47.625 22.574218,42.328124 A 14,14 0 0 1 18,32 14,14 0 0 1 18.660156,27.761718 l -5.28125,-3.05078 z M 42.328124,41.425782 A 14,14 0 0 1 32,46 14,14 0 0 1 27.761718,45.339844 l -3.05078,5.28125 A 20,20 0 0 0 32,52 20,20 0 0 0 42.953124,48.714844 l 7.507814,4.335938 c 1.54404,-1.353996 2.930752,-2.87346 4.14453,-4.535158 L 47.625,44.484376 42.328124,41.425782 Z"/>
 <path style="opacity:0.1;fill:#ffffff" d="M 32 4 C 16.488 4 4 16.488 4 32 C 4 32.11345 4.0112805 32.224113 4.0175781 32.335938 C 4.3691213 17.134181 16.710728 5 32 5 C 47.289272 5 59.630879 17.134181 59.982422 32.335938 C 59.98872 32.224113 60 32.11345 60 32 C 60 16.488 47.512 4 32 4 z"/>
</svg>
